!!!COM: Palestrina, Giovanni Perluigi da
!!!OPR: Missa Te Deum laudamus
!!!OMD: Credo
!!!OTL: Et unam Sanctam
**kern	**kern	**kern	**kern	**kern	**kern
*Ibass	*Itenor	*Itenor	*Icalto	*Icalto	*Icant
!Bassus	!Tenor 2	!Tenor 1	!Altus 2	!Altus 1	!Cantus
*clefF4	*clefGv2	*clefGv2	*clefG2	*clefG2	*clefG2
*k[]	*k[]	*k[]	*k[]	*k[]	*k[]
*A:aeo	*A:aeo	*A:aeo	*A:aeo	*A:aeo	*A:aeo
*M4/2	*M4/2	*M4/2	*M4/2	*M4/2	*M4/2
=187	=187	=187	=187	=187	=187
1AA	0r	0A	0e	2c	1a
.	.	.	.	2e	.
2r	.	.	.	2c	2r
2A	.	.	.	2c	2cc
=188	=188	=188	=188	=188	=188
2F	0r	0r	2r	1d	2a
2G	.	.	2g	.	2b
1A	.	.	2e	1c	1cc
.	.	.	2f#	.	.
=189	=189	=189	=189	=189	=189
2G	0r	0r	1g	1.d	2b
2G	.	.	.	.	2b
2D	.	.	2f	.	2.a
2F	.	.	2f	2c	.
.	.	.	.	.	4a
=190	=190	=190	=190	=190	=190
4C	0r	0r	2.e	2c	0g
4D	.	.	.	.	.
4E	.	.	.	2.c	.
4C	.	.	4e	.	.
1G	.	.	1d	.	.
.	.	.	.	8B	.
.	.	.	.	8A	.
.	.	.	.	2B	.
=191	=191	=191	=191	=191	=191
1C	2r	1r	1e	1c	2r
.	2c	.	.	.	2g
1r	2A	2r	2c	1r	2a
.	2B	2G	2d	.	2g
=192	=192	=192	=192	=192	=192
0r	2.c	2E	4e	2r	2g
.	.	.	4e	.	.
.	.	2F	2A	2f	2a
.	4c	.	.	.	.
.	2B	2.G	2r	2d	1g
.	2B	.	2B	2e	.
.	.	4G	.	.	.
=193	=193	=193	=193	=193	=193
0r	2A	2D	2d	2.f	1r
.	2A	2F	2c	.	.
.	.	.	.	4f	.
.	2G	4C	1c	2e	1g
.	.	4D	.	.	.
.	2c	4E	.	2e	.
.	.	4C	.	.	.
=194	=194	=194	=194	=194	=194
1r	2c	2G	1r	2d	2.g
.	2B	2G	.	2d	.
.	.	.	.	.	4g
2r	1c	1C	2r	1c	2e
2E	.	.	2e	.	2g
=195	=195	=195	=195	=195	=195
2F	0r	0r	2d	2r	2a
2G	.	.	2d	2g	2b
2A	.	.	2c	2e	2cc
2E	.	.	2B	2e	2g
=196	=196	=196	=196	=196	=196
2F	2r	0r	2A	1c	2a
2E	2G	.	2c	.	2g
1D	2A	.	1d	1r	1f
.	2B	.	.	.	.
=197	=197	=197	=197	=197	=197
1C	2c	2r	1G	1g	1e
.	2G	2c	.	.	.
1r	2A	2c	2r	2f	1r
.	2G	2B	2B	2e	.
=198	=198	=198	=198	=198	=198
1r	1F	1A	2c	1a	1r
.	.	.	2d	.	.
2r	1E	2B	1e	2.g	2r
2G	.	[2e	.	.	2b
.	.	.	.	4f	.
=199	=199	=199	=199	=199	=199
2A	0r	2e]	2.c	1e	2cc
1c	.	2A	.	.	1ee
.	.	.	4d	.	.
.	.	2c	4e	1r	.
.	.	.	4f	.	.
2B	.	2d	2g	.	2dd
=200	=200	=200	=200	=200	=200
2A	0r	2e	1r	1r	2cc
2G	.	2E	.	.	2b
2F	.	2r	2r	1c	2a
2E	.	2G	2e	.	2g
=201	=201	=201	=201	=201	=201
1D	0r	1A	2f	2d	2f
.	.	.	1a	1f	2d
1C	.	1c	.	.	2r
.	.	.	2g	2e	2e
=202	=202	=202	=202	=202	=202
1D	0r	1A	2f	2d	0f
.	.	.	2e	2c	.
1D	.	1r	2d	2B	.
.	.	.	2c	[2A	.
=203	=203	=203	=203	=203	=203
1E	2r	1r	1B	2A]	1e
.	2.e	.	.	2G#	.
1AA	.	2r	2c	1A	1e
.	4d	.	.	.	.
.	4c	[2A	[2e	.	.
.	4B	.	.	.	.
=204	=204	=204	=204	=204	=204
2r	2A	4A]	2e]	0r	0a
.	.	4G	.	.	.
1D	2A	4F	1f	.	.
.	.	4E	.	.	.
.	1A	2D	.	.	.
2C#	.	2E	2e	.	.
=205	=205	=205	=205	=205	=205
1D	1A	1F#	2.d	2r	1a
.	.	.	.	2.d	.
.	.	.	4c	.	.
2.GG	2r	1G	4B	.	2.dd
.	.	.	4A	4c	.
.	[2G	.	4B	4B	.
4AA	.	.	4c	4A	4cc
=206	=206	=206	=206	=206	=206
4BB	2G]	1D	0d	2G	2b
4GG	.	.	.	.	.
2D	2F#	.	.	2A	2a
1GG	1G	1r	.	1B	2g
.	.	.	.	.	[2g
=207	=207	=207	=207	=207	=207
2r	1C	0r	1e	2c	2g]
1C	.	.	.	1e	2g
.	2r	.	2r	.	2g
[2C	[2G	.	[2g	2e	2g
=208	=208	=208	=208	=208	=208
2C]	2G]	0r	2g]	1e	1cc
2C	2G	.	2g	.	.
1GG	2G	.	2g	1d	1b
.	2G	.	2g	.	.
=209	=209	=209	=209	=209	=209
1AA	1c	2.E	1e	2c	1.a
.	.	.	.	2A	.
.	.	4E	.	.	.
1r	1B	2E	1e	1r	.
.	.	2E	.	.	2g
=210	=210	=210	=210	=210	=210
0r	2A	2A	2c	0r	2f
.	2G	2B	2.B	.	1e
.	1F	2c	.	.	.
.	.	.	4A	.	.
.	.	2A	[2A	.	2d
=211	=211	=211	=211	=211	=211
1r	2E	1B	2A]	1r	2e
.	2E	.	2G#	.	2b
1AA	1A	2A	[1A	1e	1cc
.	.	2c	.	.	.
=212	=212	=212	=212	=212	=212
1D	2.F	1d	1A]	1f	1a
.	4G	.	.	.	.
2AA	1A	1e	1r	2e	1cc
2A	.	.	.	2c	.
=213	=213	=213	=213	=213	=213
2G	0r	2r	0r	1d	2b
2F	.	2A	.	.	2a
2.E	.	2B	.	2e	2.g
.	.	2B	.	[2g	.
4D	.	.	.	.	4f
=214	=214	=214	=214	=214	=214
2C	0r	2.c	0r	4g]	2e
.	.	.	.	4f	.
2.C	.	.	.	2e	1cc
.	.	4d	.	.	.
.	.	1e	.	[1g	.
4D	.	.	.	.	.
4E	.	.	.	.	4b
4F	.	.	.	.	4a
=215	=215	=215	=215	=215	=215
2G	0r	2.d	0r	2g]	2b
2D	.	.	.	2f	1a
.	.	4c	.	.	.
1E	.	1B	.	2.e	.
.	.	.	.	.	2g#
.	.	.	.	4d	.
=216	=216	=216	=216	=216	=216
0AA	2r	1A	1e	1c#	1a
.	2E	.	.	.	.
.	1A	1r	1e	1c#	2r
.	.	.	.	.	2a
=217	=217	=217	=217	=217	=217
0r	2D	0r	2f	1d	1a
.	2d	.	2f	.	.
.	2c	.	1g	2e	2cc
.	2B	.	.	2d	2dd
=218	=218	=218	=218	=218	=218
0r	2.A	0r	1a	2e	2cc
.	.	.	.	2e	2b
.	4G	.	.	.	.
.	2F	.	2r	2.f	2.a
.	[2F	.	[2a	.	.
.	.	.	.	4g	4g
=219	=219	=219	=219	=219	=219
0r	4F]	0r	4a]	1a	2f
.	4G	.	4g	.	.
.	4A	.	2f	.	1cc
.	4B	.	.	.	.
.	2c	.	2e	1g	.
.	2G	.	[2d	.	2b
=220	=220	=220	=220	=220	=220
1r	1A	2r	2d]	1e	2.a
.	.	2.A	2c#	.	.
.	.	.	.	.	4g
2r	1D	.	1d	2.a	4f
.	.	4G	.	.	4e
[2D	.	4F	.	.	2d
.	.	4E	.	4g	.
=221	=221	=221	=221	=221	=221
2D]	1r	2D	2r	2f	0a
2C#	.	2E	2.A	1e	.
1D	2r	1F	.	.	.
.	.	.	4G	.	.
.	[2A	.	4A	2d	.
.	.	.	4B	.	.
=222	=222	=222	=222	=222	=222
1AA	4A]	[0E	2c	[0e	2r
.	4G	.	.	.	.
.	4A	.	2A	.	2.ee
.	4B	.	.	.	.
[1AA	2c	.	2.e	.	.
.	.	.	.	.	4dd
.	2A	.	.	.	4cc
.	.	.	4d	.	4b
=223	=223	=223	=223	=223	=223
2AA]	2.e	0E]	2c	0e]	2a
2GG#	.	.	2B	.	2b
.	4d	.	.	.	.
1AA	4c	.	1A	.	1cc
.	4B	.	.	.	.
.	[2A	.	.	.	.
=224	=224	=224	=224	=224	=224
[0E	2A]	[0E	[0B	[0e	[0b
.	4G#	.	.	.	.
.	4F#	.	.	.	.
.	1G#	.	.	.	.
=225	=225	=225	=225	=225	=225
0E]	0G#	0E]	0B]	0e]	0b]
==	==	==	==	==	==
*-	*-	*-	*-	*-	*-
!!!CDT: 1525/^1526/-1594/2/2
!!!OCY: Italia
!!!AGN: Mass (Paraphrase)
!!!AST: renaissance, vocal
!!!ASW: Hymn
!!!PWK: Masses, Book 9
!!!RNB: Cadence finals: G,E,D
!!!YOR: Le Opere Complete, v. 25, p. 172
!!!YOO: Rome, Italy: Fratelli Scalera
!!!END: 1992//
!!!EED: John Miller
!!!YEC: Copyright 2000, John Miller
!!!YEN: United States of America
!!!YEM: Rights to all derivative electronic formats reserved.
!!!YEM: Refer to licensing agreement for further details.
!!!YEM: This file must be accompanied by the licensing agreement.
!!!YEM: A copy of the licensing agreement may be found at http://www.music-cog.ohio-state.edu/HumdrumDatabases/Palestrina/license.txt
!!!EMD: converted to Humdrum by Bret Aarden
